src/pos-icons/arm-flex-outline.svg

<svg height="24" viewBox="0 0 24 24" width="24" xmlns="http://www.w3.org/2000/svg"><path d="m7 7.76v8.49h4.08l.6-.91c1.16-1.79 3.25-2.59 4.79-2.59.53 0 .98.09 1.32.25.91.41 1.16 1.18 1.21 1.74.08 1.13-.5 2.29-1.5 2.97-.9.62-3.06 1.29-5.63 1.29-1.75 0-4.26-.31-6.75-1.7.29-2.45.88-6.42 1.88-9.54m0-4.76c-3 4.09-4 15.34-4 15.34 2.9 1.97 6.08 2.66 8.87 2.66 2.99 0 5.52-.79 6.77-1.64 3-2.04 3.3-6.65 0-8.18-.64-.29-1.38-.43-2.17-.43-2.3 0-4.97 1.21-6.47 3.5h-1v-7.16h2l1-3.09z"/></svg>

<?xml version="1.0" encoding="UTF-8"?><!DOCTYPE svg PUBLIC "-//W3C//DTD SVG 1.1//EN" "http://www.w3.org/Graphics/SVG/1.1/DTD/svg11.dtd"><svg xmlns="http://www.w3.org/2000/svg" xmlns:xlink="http://www.w3.org/1999/xlink" version="1.1" id="mdi-arm-flex-outline" width="24" height="24" viewBox="0 0 24 24"><path d="M7 7.76V16.25H11.08L11.68 15.34C12.84 13.55 14.93 12.75 16.47 12.75C17 12.75 17.45 12.84 17.79 13C18.7 13.41 18.95 14.18 19 14.74C19.08 15.87 18.5 17.03 17.5 17.71C16.6 18.33 14.44 19 11.87 19C10.12 19 7.61 18.69 5.12 17.3C5.41 14.85 6 10.88 7 7.76M7 3C4 7.09 3 18.34 3 18.34C5.9 20.31 9.08 21 11.87 21C14.86 21 17.39 20.21 18.64 19.36C21.64 17.32 21.94 12.71 18.64 11.18C18 10.89 17.26 10.75 16.47 10.75C14.17 10.75 11.5 11.96 10 14.25H9V7.09H11L12 4L7 3Z" /></svg>
